// @title W01-01
// @license CC BY-NC-SA 4.0 https://creativecommons.org/licenses/by-nc-sa/4.0/
// @by cathytham
// @date Jan 17, 2026

// 01
setcps(0.75)
sound("bd sd cp . hh hh")
  .gain(0.6)
  .chunk(2, x => x.hurry(2))
