// @title W01-02
// @license CC BY-NC-SA 4.0 https://creativecommons.org/licenses/by-nc-sa/4.0/
// @by cathytham
// @date Jan 17, 2026

// 02
n("0*3 2 1 3 4 5 [2 6]*2 [4 5]")
  .s("gm_acoustic_bass")
  .gain(rand.range(0.3,0.8))
  .cutoff(rand.range(500,4500))
  .pan(rand.range(-1,1))

