// @title W01-03
// @license CC BY-NC-SA 4.0 https://creativecommons.org/licenses/by-nc-sa/4.0/
// @by cathytham
// @date Jan 17, 2026

// 03
setcps(1)

s(
  "[bd ~ cp clap]*2, [hh pluck:3 ~ hh]*2, [bell:2 ~ bell:3 ~], [marimba:4 pluck:1 ~]*2"
)
.gain(0.6)
.bank("RolandTR909")
