// @title W01-04
// @license CC BY-NC-SA 4.0 https://creativecommons.org/licenses/by-nc-sa/4.0/
// @by cathytham
// @date Jan 17, 2026

// 04
setcps(1)

stack(
  note("c4 g4 e4 c5 g5 e5 b4 d5")
    .sound("sine")
    .lpf(220)
    .lpq(6)
  ,
  note("c4 d4 [e4 g4] b4 ~ a4 c5 e5")
    .sound("sine")
    .lpf(100)
    .lpq(5)
)
