// @title W01-05
// @license CC BY-NC-SA 4.0 https://creativecommons.org/licenses/by-nc-sa/4.0/
// @by cathytham
// @date Jan 18, 2026

// 5
setcps(1)

stack(
  s("[gm_synth_strings_1 pluck:2 pluck:3]*2")
    .gain(0.5)
    .pan(-0.2),

  note("c5 e5 g5 c6 e6 g6 b5 c6 ")
    .sound("sine")
    .lpf(220)
    .lpq(4)
    .gain(0.5)
)
